X: 238
T: Rushy Mount (slide)
C: BB 11/06
N: 192181 
L: 1/8
M: 12/8
R: slide
Q: 1/4=190
K: G
D | "G"DEG BAG "D"FAF "G"G2G | "G"BdB "C"c2c "Am"AcA "G"B2B |
"G"DEG "Em"BGE "D"DFA "G"G2B| "C"cGE "D"DFA "G"G3 G2 :|
B | "G"dcB g2d "Am"ece a2a | "G"bag "Em"efg "D7"dcB ABc |
"G"BGB d^cd "Am"e=ce a2f | "G"gdB "D"AFA "G"G3 G2 :|
%%%%%%%%%%%%%%%%%%%%%%%%%%%%%%%%%%%%%%%%%%
